icons/4_Outdated/Enom v1.svg

<svg width="1024" height="1024" viewBox="0 0 1024 1024" fill="none" xmlns="http://www.w3.org/2000/svg">
<g clip-path="url(#clip0_3_536)">
<path d="M512 1024C794.77 1024 1024 794.77 1024 512C1024 229.23 794.77 0 512 0C229.23 0 0 229.23 0 512C0 794.77 229.23 1024 512 1024Z" fill="#F8C18C"/>
<path d="M752.299 452.498C736.099 451.998 720.799 459.998 711.999 473.598C704.899 460.398 690.999 452.198 675.999 452.498C663.799 452.298 652.099 456.798 643.199 465.098L642.499 457.098C642.399 456.298 641.699 455.698 640.899 455.698H616.699C615.799 455.698 615.099 456.398 615.099 457.298V566.898C615.099 567.798 615.799 568.498 616.699 568.498H641.599C642.499 568.498 643.199 567.798 643.199 566.898V515.198C643.899 492.398 654.499 479.998 668.899 479.998C685.099 479.998 692.299 493.198 692.299 510.598V566.998C692.299 567.898 692.999 568.598 693.899 568.598H718.799C719.699 568.598 720.399 567.898 720.399 566.998V517.598C720.399 494.898 730.899 479.998 745.299 479.998C760.999 479.998 767.999 493.198 767.999 510.598V566.998C767.999 567.898 768.699 568.598 769.599 568.598H793.699C794.599 568.598 795.299 567.898 795.299 566.998V510.598C795.299 474.298 778.199 452.498 752.299 452.498ZM540.499 452.498C508.699 452.498 482.799 479.198 482.799 511.998C482.799 544.798 508.599 571.498 540.499 571.498C572.399 571.498 598.199 544.798 598.199 511.998C598.199 479.198 572.299 452.498 540.499 452.498ZM540.499 544.498C524.299 544.498 510.899 529.998 510.899 511.998C510.899 493.998 524.399 479.498 540.499 479.498C556.599 479.498 570.099 493.998 570.099 511.998C570.099 529.998 556.599 544.498 540.499 544.498ZM420.399 452.498C407.599 452.298 395.299 457.198 386.199 466.098L385.499 457.198C385.399 456.398 384.799 455.698 383.899 455.798H359.599C358.699 455.798 357.999 456.498 357.999 457.398V566.998C357.999 567.898 358.699 568.598 359.599 568.598H384.499C385.399 568.598 386.099 567.898 386.099 566.998V515.398C386.799 492.498 398.899 480.098 413.299 480.098C429.499 480.098 437.499 493.298 437.499 510.698V567.098C437.499 567.998 438.199 568.698 439.099 568.698H463.999C464.899 568.698 465.599 567.998 465.599 567.098V510.698C465.599 474.298 447.199 452.498 420.399 452.498ZM317.599 533.298C316.999 532.798 316.099 532.798 315.499 533.398C308.299 540.698 298.499 544.798 288.299 544.798C281.899 544.998 275.699 543.098 270.399 539.498L339.899 488.698C340.399 488.198 340.599 487.498 340.299 486.798C335.499 476.298 319.599 452.398 288.199 452.398C255.299 452.398 228.699 479.098 228.699 511.898C228.699 544.798 255.299 571.398 288.199 571.398C306.699 571.398 325.399 563.198 336.199 550.698C336.799 550.098 336.699 549.098 336.099 548.498L335.999 548.398L317.599 533.298ZM288.199 479.098C294.499 478.898 300.699 480.798 305.799 484.698L256.599 520.598C250.999 500.298 267.799 479.098 288.199 479.098Z" fill="white"/>
</g>
<defs>
<clipPath id="clip0_3_536">
<rect width="1024" height="1024" fill="white"/>
</clipPath>
</defs>
</svg>

<svg width="1024" height="1024" fill="none" xmlns="http://www.w3.org/2000/svg"><g clip-path="url(#a)"><path d="M512 1024c282.77 0 512-229.23 512-512S794.77 0 512 0 0 229.23 0 512s229.23 512 512 512Z" fill="#F8C18C"/><path d="M752.299 452.498c-16.2-.5-31.5 7.5-40.3 21.1-7.1-13.2-21-21.4-36-21.1-12.2-.2-23.9 4.3-32.8 12.6l-.7-8c-.1-.8-.8-1.4-1.6-1.4h-24.2c-.9 0-1.6.7-1.6 1.6v109.6c0 .9.7 1.6 1.6 1.6h24.9c.9 0 1.6-.7 1.6-1.6v-51.7c.7-22.8 11.3-35.2 25.7-35.2 16.2 0 23.4 13.2 23.4 30.6v56.4c0 .9.7 1.6 1.6 1.6h24.9c.9 0 1.6-.7 1.6-1.6v-49.4c0-22.7 10.5-37.6 24.9-37.6 15.7 0 22.7 13.2 22.7 30.6v56.4c0 .9.7 1.6 1.6 1.6h24.1c.9 0 1.6-.7 1.6-1.6v-56.4c0-36.3-17.1-58.1-43-58.1Zm-211.8 0c-31.8 0-57.7 26.7-57.7 59.5s25.8 59.5 57.7 59.5c31.9 0 57.7-26.7 57.7-59.5s-25.9-59.5-57.7-59.5Zm0 92c-16.2 0-29.6-14.5-29.6-32.5s13.5-32.5 29.6-32.5 29.6 14.5 29.6 32.5-13.5 32.5-29.6 32.5Zm-120.1-92c-12.8-.2-25.1 4.7-34.2 13.6l-.7-8.9c-.1-.8-.7-1.5-1.6-1.4h-24.3c-.9 0-1.6.7-1.6 1.6v109.6c0 .9.7 1.6 1.6 1.6h24.9c.9 0 1.6-.7 1.6-1.6v-51.6c.7-22.9 12.8-35.3 27.2-35.3 16.2 0 24.2 13.2 24.2 30.6v56.4c0 .9.7 1.6 1.6 1.6h24.9c.9 0 1.6-.7 1.6-1.6v-56.4c0-36.4-18.4-58.2-45.2-58.2Zm-102.8 80.8c-.6-.5-1.5-.5-2.1.1-7.2 7.3-17 11.4-27.2 11.4-6.4.2-12.6-1.7-17.9-5.3l69.5-50.8c.5-.5.7-1.2.4-1.9-4.8-10.5-20.7-34.4-52.1-34.4-32.9 0-59.5 26.7-59.5 59.5 0 32.9 26.6 59.5 59.5 59.5 18.5 0 37.2-8.2 48-20.7.6-.6.5-1.6-.1-2.2l-.1-.1-18.4-15.1Zm-29.4-54.2c6.3-.2 12.5 1.7 17.6 5.6l-49.2 35.9c-5.6-20.3 11.2-41.5 31.6-41.5Z" fill="#fff"/></g><defs><clipPath id="a"><path fill="#fff" d="M0 0h1024v1024H0z"/></clipPath></defs></svg>
